X:120
T:A Waltz
O:No 120 Wm Clarke MS  Feltwell, Norfolk
I:abc2nwc
M:3/4
L:1/8
K:D
A2|d2df d2|d2df d2|e2ed eg|f2d2A2|
d2df d2|d2df d2|e2ed ef|d4:|
|:e2|gf ef ga|f2d2f2|gf ef ga|
f4A2|d2df d2|d2df d2|e2ed ef|d4:|

